img/youtube.svg

<svg width="20" height="16" xmlns="http://www.w3.org/2000/svg"><path d="M10 .3C.172.3 0 1.174 0 8c0 6.826.172 7.7 10 7.7s10-.874 10-7.7c0-6.826-.172-7.7-10-7.7zm3.205 8.034l-4.49 2.096c-.393.182-.715-.022-.715-.456V6.026c0-.433.322-.638.715-.456l4.49 2.096c.393.184.393.484 0 .668z" fill="#4C83FF"/></svg>

<?xml version="1.0" encoding="UTF-8"?>
<svg width="20px" height="16px" viewBox="0 0 20 16" version="1.1" xmlns="http://www.w3.org/2000/svg" xmlns:xlink="http://www.w3.org/1999/xlink">
    <!-- Generator: Sketch 43.2 (39069) - http://www.bohemiancoding.com/sketch -->
    <title>youtube</title>
    <desc>Created with Sketch.</desc>
    <defs></defs>
    <g id="Page-1" stroke="none" stroke-width="1" fill="none" fill-rule="evenodd">
        <g id="youtube" fill-rule="nonzero" fill="#4C83FF">
            <path d="M10,0.3 C0.172,0.3 0,1.174 0,8 C0,14.826 0.172,15.7 10,15.7 C19.828,15.7 20,14.826 20,8 C20,1.174 19.828,0.3 10,0.3 Z M13.205,8.334 L8.715,10.43 C8.322,10.612 8,10.408 8,9.974 L8,6.026 C8,5.593 8.322,5.388 8.715,5.57 L13.205,7.666 C13.598,7.85 13.598,8.15 13.205,8.334 Z" id="Shape"></path>
        </g>
    </g>
</svg>
